X:1
T:Title
%%score ( 1 2 ) 3
L:1/8
Q:1/4=108
M:2/4
K:Bb
V:1 treble nm="Grand Piano, Soprano"
V:2 treble 
V:3 bass nm="Choir Pad, Wer Weiss, W. N. (Bronner)"
V:1
 [DF]2 [B,B]2 | [B,F]2 [B,G]2 | [B,G]2 [B,F]2 | E-[A,E] [B,D]2- | [B,D]2 [F,B,]2 | [B,D]2 [A,E]2 | %6
w: By~Georg~Bronner,~1715 *||||||
 [B,D]2 [A,C]2 | [A,F]2 [DG]2 | [CG]2 [A,F]2 | [DF]2 [B,B]2 | [B,F]2 [B,G]2 | [B,G]2 [B,F]2 | %12
w: ||||||
 E-[A,E] [B,D]2- | [B,D]2 [F,B,]2 | [B,D]2 [A,E]2 | [B,D]2 [A,C]2 | [A,F]2 [DG]2 | [CG]2 [A,F]2 | %18
w: ||||||
 [CF]2 [DB]2 | [Fc]2 [Fd]2 | [DB]2 [Ge]2 | [Fd]2 [Fc]2 | [Fd]2 [FB]2 | [EG]2 [DF]2 | [DB]2 [CB]2 | %25
w: |||||||
 [CA]2 [DB]2- | [DB]4- | [DB]2 z2 |] %28
w: |||
V:2
 x4 | x4 | x4 | .G,2 z2 | x4 | x4 | x4 | x4 | x4 | x4 | x4 | x4 | .G,2 z2 | x4 | x4 | x4 | x4 | %17
 x4 | x4 | x4 | x4 | x4 | x4 | x4 | x4 | x4 | x4 | x4 |] %28
V:3
 [B,,F,]2 [D,F,]2 | [B,,D,]2 [G,,D,]2 | [E,,E,]2 [B,,D,]2 | [C,E,]2 [B,,F,]2- | [B,,F,]2 [B,,D,]2 | %5
 [B,,F,]2 [C,E,]2 | [B,,F,]2 F,2 | [D,F,]2 [B,,F,]2 | [C,=E,]2 [F,,F,]2 | [B,,F,]2 [D,F,]2 | %10
 [B,,D,]2 [G,,D,]2 | [E,,E,]2 [B,,D,]2 | [C,E,]2 [B,,F,]2- | [B,,F,]2 [B,,D,]2 | [B,,F,]2 [C,E,]2 | %15
 [B,,F,]2 F,2 | [D,F,]2 [B,,F,]2 | [C,=E,]2 [F,,F,]2 | [A,C]2 [G,B,]2 | [F,A,]2 [B,,B,]2 | %20
 [G,B,]2 [E,B,]2 | [B,,B,]2 [F,A,]2 | [B,,B,]2 [D,B,]2 | [E,B,]2 B,2 | [G,B,]2 [E,G,]2 | %25
 F,2 [B,,F,]2- | [B,,F,]4- | [B,,F,]2 z2 |] %28

